X:2
T:The Lads of Laois
M:4/4
L:1/8
R:slow reel
N:Z:id:hn-reel-100
D:Arty McGlynn & Nollaig Casey: Lead the Knave.
K:EDor
EB,B,2 EGFE|DA,A,2 DEFD|GEED EFGA|B2ec dBAF|
EB,B,2 EGFE|DA,A,2 DEFD|E2BE dBAF|1 DEFA BEED:|2 DEFA BE~E2||
eB B2 egfe|defa gfed|(3Bcd ed efge|fgaf gfed|
eB B2 GBFB|EBBA Bdef|g3e f3d|1 efed BAFB:|2 efed BAFD||
